X:1
T:Six Songs from A Shropshire Lad
T:Is my team ploughing?
T:6 Songs from A Shropshire Lad
T:George Butterworth
T:6. Is my team ploughing?
T:Alfred Edward Housman
T:Creative Commons copyright waiver (CC0 1.0 Universal)
T:Creative Commons copyright waiver (CC0 1.0 Universal)
T:Creative Commons copyright waiver (CC0 1.0 Universal)
T:Creative Commons copyright waiver (CC0 1.0 Universal)
C:George Butterworth
Z:Alfred Edward Housman
Z:Creative Commons copyright waiver (CC0 1.0 Universal)
%%score 1 { ( 2 4 ) | ( 3 5 ) }
L:1/8
Q:1/4=104
M:4/4
K:Bb
V:1 treble nm="Voice"
V:2 treble nm="Piano"
V:4 treble 
V:3 bass 
V:5 bass 
V:1
"^Molto moderato, senza rigore." z4 |!pp! e d c2 d B2 B | G c c3/2 d/ c2 z c | F3/2 F/ G F c G2 G | %4
w: |“Is my team plough- ing, That|I was used to drive And|hear the har- ness jin- gle When|
 G G A3/2 B/ !breath!!fermata!c4 |!f!"^Poco più mosso."[Q:1/4=118] G3/2 F/ E G B G2 G | %6
w: I was man a- live?”|Ay, the hor- ses tram- ple, The|
 G F E G A2 z A | B3/2 A/ G B d2 A[Q:1/4=114]"^rit. e dim." A | %8
w: har- ness jin- gles now; No|change though you lie un- der The|
[Q:1/4=110] G3/2 G/[Q:1/4=106] A F !breath!G4 |"^Tempo I."[Q:1/4=104] z!pp! e d c d B2 B | %10
w: land you used to plough.|“Is foot- ball play- ing A-|
 G3/2 c/ c d c2 z c | F3/2 F/ G F c G2 G | G G A B !breath!!fermata!c4 | %13
w: long the ri- ver- shore, With|lads to chase the lea- ther, Now|I stand up no more?”|
"^Poco più mosso."!f![Q:1/4=118] G3/2 F/ E G B G2 G | G F E G A2 z A | %15
w: Ay, the ball is fly- ing, The|lads play heart and soul; The|
 B A G z/ B/ d2 A[Q:1/4=114]"^rit. e dim." A |[Q:1/4=110] G3/2 G/[Q:1/4=106] A F !breath!G4 | %17
w: goal stands up, the keep- er Stands|up to keep the goal.|
"^Tempo I."[Q:1/4=104] z8 |!pp! e d c2 d B2 B | G c c3/2 d/ c2 z c | F F G3/2 F/ c G2 G | %21
w: |“Is my girl hap- py, That|I thought hard to leave, And|has she tired of weep- ing As|
 G G A3/2 B/ !breath!!fermata!c4 |!f!"^Poco più mosso."[Q:1/4=118] G3/2 F/ E G B G2 G | %23
w: she lies down at eve?”|Ay, she lies down light- ly, She|
 G F E G A2 z A | B3/2 A/ G B d A z[Q:1/4=112]"^rit. e dim." A | %25
w: lies not down to weep: Your|girl is well con- tent- ed. Be|
[Q:1/4=106] G3/2 G/[Q:1/4=100] A F !breath!G4 |"^Tempo I."[Q:1/4=102] z8 |!pp! e d c2 d B2 B | %28
w: still, my lad, and sleep.||“Is my friend heart- y, Now|
 G c c3/2 d/ c2 z c | F F G3/2 F/ c G2 G | G G A3/2 B/ !breath!!fermata!c4 | %31
w: I am thin and pine, And|has he found to sleep in A|bet- ter bed than mine?”|
!f!"^Poco più mosso."[Q:1/4=112] G F E G B G2 G | G3/2 F/ E G A2 z!mf![Q:1/4=108] A | %33
w: Yes, lad, I lie ea- sy, I|lie as lads would choose; I|
 B3/2 A/ G B !fermata!d2 !breath!!fermata!A2 |[Q:1/4=64]"^Lento" z2!p! G G A3 F | %35
w: cheer a dead man's sweet- heart,|Ne- ver ask me|
 c4- !fermata!c2 z2 | z8[Q:1/4=80] | z8 | z8 | !fermata!z8 |] %40
w: whose. _|||||
V:2
!pp! [Ae]4- | [Ae]4 [G-d]4 | [Gc]4 [E-B]4 | [EA]4 [C-G]4 | [CF]4!ppp! !breath!!fermata![A,E]4 | %5
!f! [B,EG]4 [B,DGB]4 | [B,EG]4 [A,CFA]4 | [EGB]4 [FAd]2- [FAd] z | %8
!p! ([EG]2 [FA]2 !breath![CEG]4) |!pp! [Ae]4 [G-d]4 | [Gc]4 [E-B]4 | [EA]4 [C-G]4 | %12
 [CF]4!ppp! !breath!!fermata![A,E]4 |!f! [B,EG]4 [B,DGB]4 | [B,EG]4 [A,CFA]4 | %15
 [EGB]4 [FAd]2- [FAd] z |!p! ([EG]2 [FA]2 !breath![CEG]4) | z4!pp! [Ae]4- | [Ae]4 [G-d]4 | %19
 [Gc]4 [E-B]4 | [EA]4 [C-G]4 | [CF]4!ppp! !breath!!fermata![A,E]4 |!f! [B,EG]4 [B,DGB]4 | %23
 [B,EG]4 [A,CFA]4 | [EGB]4 [FAd]2- [FAd] z |!p! ([EG]2 [FA]2 !breath![CEG]4) | z4!pp! [Ae]4- | %27
 [Ae]4 [G-d]4 | [Gc]4 [E-B]4 | [EA]4 [C-G]4 | [CF]4!ppp! !breath!!fermata![A,E]4 | %31
!f! [B,EG]4 [B,DGB]4 | [B,EG]4 [A,CFA]4 | [EGB]4 !breath!!fermata![FAd]4 |!p! G4 A4- | %35
"^espress." (!fermata![Ae]6 [G-d]2 | [Gc]4)!>(! !tenuto![EB]4- | B4!>)! A4- | [EA]8- | %39
 [EA]4 !fermata!z4 |] %40
V:3
 [CF]4- | [CF]4 [B,E-]4 | [A,E]4 [G,C-]4 | [F,C]4 [E,A,-]4 | [D,A,]4 !breath!!fermata![C,F,]4 | %5
 [B,,E,G,]4 [G,,D,G,]4 | [B,,E,G,]4 [F,,C,F,]4 | [E,G,B,]4 [D,A,D]2- [D,A,D] z | %8
 ([E,G,]2 [F,A,]2 !breath![C,E,G,]4) | [CF]4 [B,E-]4 | [A,E]4 [G,C-]4 | [F,C]4 [E,A,-]4 | %12
 [D,A,]4 !breath!!fermata![C,F,]4 | [B,,E,G,]4 [G,,D,G,]4 | [B,,E,G,]4 [F,,C,F,]4 | %15
 [E,G,B,]4 [D,A,D]2- [D,A,D] z | ([E,G,]2 [F,A,]2 !breath![C,E,G,]4) | z4 [CF]4- | [CF]4 [B,E-]4 | %19
 [A,E]4 [G,C-]4 | [F,C]4 [E,A,-]4 | [D,A,]4 !breath!!fermata![C,F,]4 | [B,,E,G,]4 [G,,D,G,]4 | %23
 [B,,E,G,]4 [F,,C,F,]4 | [E,G,B,]4 [D,A,D]2- [D,A,D] z | ([E,G,]2 [F,A,]2 !breath![C,E,G,]4) | %26
 z4 [CF]4- | [CF]4 [B,E-]4 | [A,E]4 [G,C-]4 | [F,C]4 [E,A,-]4 | [D,A,]4 !breath!!fermata![C,F,]4 | %31
 [B,,E,G,]4 [G,,D,G,]4 | [B,,E,G,]4 [F,,C,F,]4 | [E,G,B,]4 !breath![D,A,D]4 | [CE]4 [CF]4- | %35
 (!fermata![CF]6 [B,E-]2 | [A,E]4) [G,C]4- | [G,C]8- | [G,C]8- | [G,C]4 !fermata!z4 |] %40
V:4
 x4 | x8 | x8 | x8 | x8 | x8 | x8 | x8 | C4 x4 | x8 | x8 | x8 | x8 | x8 | x8 | x8 | C4 x4 | x8 | %18
 x8 | x8 | x8 | x8 | x8 | x8 | x8 | C4 x4 | x8 | x8 | x8 | x8 | x8 | x8 | x8 | x8 | x8 | x8 | x8 | %37
 E8- | x8 | x8 |] %40
V:5
 x4 | x8 | x8 | x8 | x8 | x8 | x8 | x8 | C,4 x4 | x8 | x8 | x8 | x8 | x8 | x8 | x8 | C,4 x4 | x8 | %18
 x8 | x8 | x8 | x8 | x8 | x8 | x8 | C,4 x4 | x8 | x8 | x8 | x8 | x8 | x8 | x8 | x8 | x8 | x8 | x8 | %37
 x8 | x8 | !fermata!C,,,8 |] %40

